X:119
T:My Peggy is a Young Thing. JJo8.119
B:J.Johnson Choice Collection Vol 8 1758
Z:vmp.Simon Wilson 2013 www.village-music-project.org.uk
M:C|
L:1/8
Q:1/2=80
K:G
|:D|DGGAB2AB|cBAG{G}A3D|DGGE EAAE|DGGA BdAB|
GGGAB2AB|cBAGA3D|GFGA Bcde|gBcAG3:|
|:d|Bdddg2fa|gfe^de3d|dggf feed|dggf feed|
GFGAc2Be|dcBcA3D|GFGA ((3Bcd) ((3efg)|((3dcB) ((3cBA)G3:|

